X:1325
L:1/16
Q:1/4=96
M:2/4
K:E
|:"E" GEFD GABA | GEFD GAB z | GEFD GABA | GEFD E2 z2 ::"E" [Ge]2[GB]2"A" [Ac]2[GB][FA] | 
"E" [EG]2[FA]2 [GB]4 | [GB]2[Ge]2"A" [Ae]2[GB][FA] |"E" [EG]2[DF]2 E4 :|

